X: 10
T:Cock of the North, The
T:Cock o' the North
T:Chase me Charlie
M:6/8
L:1/8
R:slide
K:G
A[|:B2B BAB GBd e2d|B2B BAG ~A3 AGA|!
B2B BAB GBd e2d|BdB ABA G3 G2A||!
B2B BAB GBd e2d|B2B BAG ~A3 AGA|!
B2B BAB GBd e2d|BdB ABA G3 G2d|]!
g2d e2d g2d e2d|B2B BAG ~A3 ABd|!
g2d e2d g2d e2d|BdB ABA G3 G2d||!
g2d e2d g2d e2d|B2B BAG ~A3 AGA|!
B2B BAB GBd e2d|BdB ABA G3 G2A|]!
